X:35
T:Shropshire Round
S:John Moore's Book 1
Z:Transcribed by David Jacobs  April 2021
M:3/2
L:1/4
K:D
%%VWML: Moore1-4493-p21-0
F:http://www.vwml.org/record/Moore1/4493/p21
B|AGF>EDg|edeE2B|AGF>EDf|e (d/c/)dD2:|
|:B|AGFAGB|AceE2B|AGFAGB|AcdD2:|]

